X:2060
T:No title
C:Traditional
O:Isle of Man
B:Kiaull Vannin #60
Z:Clague collection
M:6/4
L:1/4
K:G
G|d2d B2B|G2B A2A|(BA) G d2d|d3 d2d|
e2d (dB)G|c2B A2d|G2B (cB)A|G3 G2||

